X:3
T:Polka de Baugy
C:Trad.
O:France
A:Berry
M:2/4
L:1/8
Q:1/4=122
K:G
G/B/ |: "G"dG GA/B/ | "D7"cF F2 | EF EF | "G"G/F/G/A/ BG/B/ |
dG GA/B/ | "D7"cF F2 | EF EF |1 "G"GB GG/B/ :|2 "G"GB G2 |:
"G"D/E/F/G/ A/G/F/E/ | "D7"Dc c2 | D/E/F/G/ A/G/F/E/ | "G"DB B2 | 
D/E/F/G/ A/G/F/E/ | "D7"Dc c2 | D/E/F/G/ A/G/F/E/ | "G"DB B2 :|
